docs/.gitbook/assets/chain-icons/injective.svg

<svg xmlns="http://www.w3.org/2000/svg" width="600" height="600" fill="none"><path fill="url(#a)" d="M148.497 169.135c2.484-3.122 5.116-6.126 7.748-9.13.118-.149.385-.179.503-.328.237-.297.622-.476.858-.774l.237-.297c1.835-1.696 3.787-3.542 6.038-5.15 7.964-6.046 16.229-10.639 24.944-13.661 27.953-9.814 59.069-3.766 83.47 19.27 34.071 31.937 31.02 83.386 3.822 117.582-34.369 50.978-93.433 122.101-11.654 185.813 14.704 11.456 25.612 20.901 71.929 34.286-30.292 5.58-58.38 3.844-89.644-4.141-22.114-12.482-56.882-39.208-68.711-75.305-17.878-54.738 31.476-136.568 55.328-168.084 32.748-43.617-20.241-90.834-59.253-38.121-20.392 27.471-56.068 105.208-43.67 162.87 7.249 32.699 16.911 56.534 55.221 89.276-7.104-4.192-14.003-8.947-20.695-14.267-89.011-82.914-78.684-211.115-16.471-279.839Z"/><path fill="url(#b)" d="M451.503 430.865c-2.484 3.122-5.116 6.126-7.748 9.13-.118.149-.385.179-.503.328-.237.297-.622.476-.858.774l-.237.297c-1.835 1.696-3.787 3.542-6.038 5.15-7.964 6.046-16.229 10.639-24.944 13.661-27.953 9.814-59.069 3.766-83.47-19.27-34.071-31.937-31.02-83.386-3.822-117.582 34.369-50.978 93.433-122.101 11.654-185.813-14.704-11.456-25.612-20.901-71.929-34.286 30.292-5.58 58.38-3.845 89.643 4.141 22.115 12.482 56.883 39.208 68.712 75.305 17.878 54.738-31.476 136.568-55.328 168.084-32.748 43.617 20.241 90.834 59.253 38.121 20.392-27.471 56.068-105.208 43.67-162.87-7.249-32.699-16.911-56.534-55.221-89.276 7.104 4.192 14.003 8.947 20.695 14.267 89.011 82.914 78.684 211.115 16.471 279.839Z"/><defs><linearGradient id="a" x1="100" x2="500" y1="300" y2="300" gradientUnits="userSpaceOnUse"><stop stop-color="#0082FA"/><stop offset="1" stop-color="#00F2FE"/></linearGradient><linearGradient id="b" x1="100" x2="500" y1="300" y2="300" gradientUnits="userSpaceOnUse"><stop stop-color="#0082FA"/><stop offset="1" stop-color="#00F2FE"/></linearGradient></defs></svg>

<svg width="600" height="600" viewBox="0 0 600 600" fill="none" xmlns="http://www.w3.org/2000/svg">
<path d="M148.497 169.135C150.981 166.013 153.613 163.009 156.245 160.005C156.363 159.856 156.63 159.826 156.748 159.677C156.985 159.38 157.37 159.201 157.606 158.903L157.843 158.606C159.678 156.91 161.63 155.064 163.881 153.456C171.845 147.41 180.11 142.817 188.825 139.795C216.778 129.981 247.894 136.029 272.295 159.065C306.366 191.002 303.315 242.451 276.117 276.647C241.748 327.625 182.684 398.748 264.463 462.46C279.167 473.916 290.075 483.361 336.392 496.746C306.1 502.326 278.012 500.59 246.748 492.605C224.634 480.123 189.866 453.397 178.037 417.3C160.159 362.562 209.513 280.732 233.365 249.216C266.113 205.599 213.124 158.382 174.112 211.095C153.72 238.566 118.044 316.303 130.442 373.965C137.691 406.664 147.353 430.499 185.663 463.241C178.559 459.049 171.66 454.294 164.968 448.974C75.957 366.06 86.2838 237.859 148.497 169.135Z" fill="url(#paint0_linear)"/>
<path d="M451.503 430.865C449.019 433.987 446.387 436.991 443.755 439.995C443.637 440.144 443.37 440.174 443.252 440.323C443.015 440.62 442.63 440.799 442.394 441.097L442.157 441.394C440.322 443.09 438.37 444.936 436.119 446.544C428.155 452.59 419.89 457.183 411.175 460.205C383.222 470.019 352.106 463.971 327.705 440.935C293.634 408.998 296.685 357.549 323.883 323.353C358.252 272.375 417.316 201.252 335.537 137.54C320.833 126.084 309.925 116.639 263.608 103.254C293.9 97.6736 321.988 99.4095 353.251 107.395C375.366 119.877 410.134 146.603 421.963 182.7C439.841 237.438 390.487 319.268 366.635 350.784C333.887 394.401 386.876 441.618 425.888 388.905C446.28 361.434 481.956 283.697 469.558 226.035C462.309 193.336 452.647 169.501 414.337 136.759C421.441 140.951 428.34 145.706 435.032 151.026C524.043 233.94 513.716 362.141 451.503 430.865Z" fill="url(#paint1_linear)"/>
<defs>
<linearGradient id="paint0_linear" x1="100" y1="300" x2="500" y2="300" gradientUnits="userSpaceOnUse">
<stop stop-color="#0082FA"/>
<stop offset="1" stop-color="#00F2FE"/>
</linearGradient>
<linearGradient id="paint1_linear" x1="100" y1="300" x2="500" y2="300" gradientUnits="userSpaceOnUse">
<stop stop-color="#0082FA"/>
<stop offset="1" stop-color="#00F2FE"/>
</linearGradient>
</defs>
</svg>
